X:228
T:Earl of Hyndford
R:Reel
B:The Athole Collection
M:C|
L:1/8
K:C Minor
G,|C2 EG cdec|BGFE EB,B,D|C2 EG cdec|BGFD ECCE|C2 EG cdec|BGFE DB,B,D|
ECFD GEAF|GEFD ECC||G|cGEe cgec|Bbfg dfBd|ecge dBGc|BEDG ECCG|
CGEe cgec|GdFB DFB,D|ECFD GEAF|GEFD ECC||

